X: 15528
T: Glentaun, The
R: reel
M: 4/4
K: Gmajor
|:DGBG AGBG|DGBG AGEG|DGBG AGAB|d2ed BGG2:|
|:BddB d2ef|g2fg eA~A2|B/c/d ef g3e|dBAc BGG2:|

